portfolio-htmlcssjs/img/img_service2.svg

<svg fill="none" height="57" viewBox="0 0 55 57" width="55" xmlns="http://www.w3.org/2000/svg" xmlns:xlink="http://www.w3.org/1999/xlink"><clipPath id="a"><path d="m0 0h55v56.8966h-55z"/></clipPath><g clip-path="url(#a)"><path d="m37.8125 35.5603c9.4961 0 17.1875-7.9566 17.1875-17.7801 0-1.7003-.2363-3.3449-.666-4.9118-.333-1.2002-1.7617-1.4669-2.6104-.589l-8.25 8.5345c-.3222.3334-.7627.5223-1.2138.5223h-6.166c-.9454 0-1.7188-.8001-1.7188-1.778v-6.3786c0-.4668.1826-.9224.5049-1.2558l8.25-8.53445c.8486-.8779.5801-2.35588-.5694-2.700368-1.5146-.444505-3.1044-.688982-4.748-.688982-9.4961 0-17.1875 7.95663-17.1875 17.7802 0 2.1225.3652 4.1672 1.0205 6.0563l-19.5078 20.1805c-1.364263 1.4113-2.1377 3.3338-2.1377 5.3341 0 4.1672 3.26563 7.5455 7.29395 7.5455 1.93359 0 3.79195-.8002 5.15625-2.2115l19.5078-20.1805c1.8262.689 3.8027 1.0557 5.8545 1.0557zm-29.21875 9.7791c.68376 0 1.33952.281 1.82305.7812.4835.5002.7551 1.1785.7551 1.8859 0 .7073-.2716 1.3857-.7551 1.8858-.48353.5002-1.13929.7812-1.82305.7812s-1.33952-.281-1.82301-.7812c-.48349-.5001-.75512-1.1785-.75512-1.8858 0-.7074.27163-1.3857.75512-1.8859s1.13925-.7812 1.82301-.7812z" fill="#808080"/></g></svg>

<svg width="55" height="57" viewBox="0 0 55 57" fill="none" xmlns="http://www.w3.org/2000/svg">
<g clip-path="url(#clip0_1_466)">
<path d="M37.8125 35.5603C47.3086 35.5603 55 27.6037 55 17.7802C55 16.0799 54.7637 14.4353 54.334 12.8684C54.001 11.6682 52.5723 11.4015 51.7236 12.2794L43.4736 20.8139C43.1514 21.1473 42.7109 21.3362 42.2598 21.3362H36.0938C35.1484 21.3362 34.375 20.5361 34.375 19.5582V13.1796C34.375 12.7128 34.5576 12.2572 34.8799 11.9238L43.1299 3.38935C43.9785 2.51145 43.71 1.03347 42.5605 0.688982C41.0459 0.244477 39.4561 0 37.8125 0C28.3164 0 20.625 7.95663 20.625 17.7802C20.625 19.9027 20.9902 21.9474 21.6455 23.8365L2.1377 44.017C0.773437 45.4283 0 47.3508 0 49.3511C0 53.5183 3.26563 56.8966 7.29395 56.8966C9.22754 56.8966 11.0859 56.0964 12.4502 54.6851L31.958 34.5046C33.7842 35.1936 35.7607 35.5603 37.8125 35.5603ZM8.59375 45.3394C9.27751 45.3394 9.93327 45.6204 10.4168 46.1206C10.9003 46.6208 11.1719 47.2991 11.1719 48.0065C11.1719 48.7138 10.9003 49.3922 10.4168 49.8923C9.93327 50.3925 9.27751 50.6735 8.59375 50.6735C7.90999 50.6735 7.25423 50.3925 6.77074 49.8923C6.28725 49.3922 6.01562 48.7138 6.01562 48.0065C6.01562 47.2991 6.28725 46.6208 6.77074 46.1206C7.25423 45.6204 7.90999 45.3394 8.59375 45.3394Z" fill="#808080"/>
</g>
<defs>
<clipPath id="clip0_1_466">
<rect width="55" height="56.8966" fill="white"/>
</clipPath>
</defs>
</svg>
